coreui/free/cil-chat-bubble.svg

<svg viewBox="0 0 512 512" xmlns="http://www.w3.org/2000/svg"><g><path d="M448.205 392.507c30.51-27.2 47.8-63.46 47.8-101.08 0-39.99-18.72-77.38-52.71-105.3 -33.08-27.17-76.87-42.13-123.298-42.13 -46.44 0-90.22 14.96-123.293 42.131 -33.99 27.92-52.71 65.314-52.71 105.29 0 39.98 18.71 77.37 52.7 105.3 33.07 27.16 76.86 42.13 123.293 42.13 6.18 0 12.41-.28 18.58-.82l10.54 9.14v-.001c36.33 31.48 82.79 48.81 130.86 48.81h16v-34.06l-4.69-4.69v-.001c-18.49-18.55-33.14-40.55-43.11-64.76Zm-78.12 30.49l-21.161-18.35 -7.06.86v0c-7.26.88-14.57 1.33-21.88 1.33 -79.4 0-144-51.79-144-115.428 0-63.65 64.6-115.43 144-115.43s144 51.78 144 115.42c0 31.71-15.82 61.31-44.55 83.358l-9.22 7.07 4.25 12.03 0 0c8.71 24.57 21.52 47.5 37.88 67.81h-.001c-30.47-5.09-58.95-18.49-82.29-38.71Z"/><path d="M60.185 317.47h-.001c14.97-18.96 26.73-40.26 34.8-63.03l4.22-11.98 -9.21-7.07c-27.088-20.79-42.006-48.69-42.006-78.56 0-60.03 61.009-108.86 136-108.86 55.16 0 102.767 26.43 124.077 64.3 3.95-.2 7.93-.3 11.92-.3q12.02 0 23.83 1.16c-8.24-21.34-22.54-40.82-42.2-56.961 -31.57-25.93-73.334-40.206-117.64-40.206 -44.3 0-86.072 14.279-117.636 40.206 -32.48 26.67-50.37 62.42-50.37 100.65 0 35.8 16.35 70.29 45.25 96.243v0c-9.44 22.69-23.22 43.32-40.57 60.72l-4.69 4.68v33.48h16 0c29.58-.01 58.76-6.9 85.23-20.125v0c-2.91-11-4.61-22.28-5.08-33.65v0c-16.07 9.41-33.66 15.92-51.98 19.24Z"/></g></svg>

<svg xmlns="http://www.w3.org/2000/svg" viewBox="0 0 512 512">
  <path fill="var(--ci-primary-color, currentColor)" d="M448.205,392.507c30.519-27.2,47.8-63.455,47.8-101.078,0-39.984-18.718-77.378-52.707-105.3C410.218,158.963,366.432,144,320,144s-90.218,14.963-123.293,42.131C162.718,214.051,144,251.445,144,291.429s18.718,77.378,52.707,105.3c33.075,27.168,76.861,42.13,123.293,42.13,6.187,0,12.412-.273,18.585-.816l10.546,9.141A199.849,199.849,0,0,0,480,496h16V461.943l-4.686-4.685A199.17,199.17,0,0,1,448.205,392.507ZM370.089,423l-21.161-18.341-7.056.865A180.275,180.275,0,0,1,320,406.857c-79.4,0-144-51.781-144-115.428S240.6,176,320,176s144,51.781,144,115.429c0,31.71-15.82,61.314-44.546,83.358l-9.215,7.071,4.252,12.035a231.287,231.287,0,0,0,37.882,67.817A167.839,167.839,0,0,1,370.089,423Z" class="ci-primary"/>
  <path fill="var(--ci-primary-color, currentColor)" d="M60.185,317.476a220.491,220.491,0,0,0,34.808-63.023l4.22-11.975-9.207-7.066C62.918,214.626,48,186.728,48,156.857,48,96.833,109.009,48,184,48c55.168,0,102.767,26.43,124.077,64.3,3.957-.192,7.931-.3,11.923-.3q12.027,0,23.834,1.167c-8.235-21.335-22.537-40.811-42.2-56.961C270.072,30.279,228.3,16,184,16S97.928,30.279,66.364,56.206C33.886,82.885,16,118.63,16,156.857c0,35.8,16.352,70.295,45.25,96.243a188.4,188.4,0,0,1-40.563,60.729L16,318.515V352H32a190.643,190.643,0,0,0,85.231-20.125,157.3,157.3,0,0,1-5.071-33.645A158.729,158.729,0,0,1,60.185,317.476Z" class="ci-primary"/>
</svg>
